X: 8
T:SCOTTISH A DEDE
M:4/4
L:1/8
Q:1/4=75
C:Andr MAILLET
K:G 
|:d3/2c/2B/2d/2d/2c/2 B3/2d/2gg|d/2e/2f/2g/2ff/2e/2 d/2e/2d/2c/2BB|d3/2c
/2B/2d/2d/2c/2 B3/2d/2gg|d/2e/2f/2g/2a/2b/2a/2g/2 f/2g/2a/2f/2g2:|!
|:^a3/2=a/2gg =f/2g/2=f/2^d/2=d2|d/2^d/2=f/2g/2a/2^a/2=a/2g/2 =f/2g/2=f/
2^d/2=d2|^a3/2=a/2gg =f/2g/2=f/2^d/2=d2|d/2^d/2=f/2g/2a/2^a/2=a/2g/2 ^f/
2g/2a/2f/2g2:|
